X: 1
T: Highway To Kilkenny
M: 9/8
L: 1/8
R: slip jig
K: Gmaj
G2 g gag dBG|A2B c2d ecA|G2g gag dBG|1e/f/ge faf gdB:|2A/B/cA BGE E2 B||
e2f g2e fdB|e2f g2a bge|1gbg faf e/f/ge|
dBG A/B/cA BGE:|2gbg faf dBG|A/B/cA BGE E2 F||
